components/ui-node-icon/src/removeDuplicateRows/removeDuplicateRows.small.svg

<svg width="16" height="16" viewBox="0 0 16 16" fill="none" xmlns="http://www.w3.org/2000/svg">
  <path fill-rule="evenodd" clip-rule="evenodd" d="M11 8C12.6569 8 14 6.65685 14 5C14 3.34315 12.6569 2 11 2C9.34315 2 8 3.34315 8 5C8 5.35064 8.06015 5.68722 8.17071 6C8.47199 6.85241 9.14759 7.52801 10 7.82929C10.0126 7.83374 10.0252 7.8381 10.0378 7.84237C10.3398 7.94458 10.6635 8 11 8ZM11 9V13C11 13.5523 10.5523 14 10 14H2C1.44772 14 1 13.5523 1 13V6C1 5.44772 1.44772 5 2 5H7C7 2.79086 8.79086 1 11 1C13.2091 1 15 2.79086 15 5C15 7.20914 13.2091 9 11 9ZM10 8.87398V9H2V6H7.12602C7.4878 7.40561 8.59439 8.5122 10 8.87398ZM12.8536 3.85355C13.0488 3.65829 13.0488 3.34171 12.8536 3.14645C12.6583 2.95118 12.3417 2.95118 12.1464 3.14645L11 4.29289L9.85355 3.14645C9.65829 2.95118 9.34171 2.95118 9.14645 3.14645C8.95118 3.34171 8.95118 3.65829 9.14645 3.85355L10.2929 5L9.14645 6.14645C8.95118 6.34171 8.95118 6.65829 9.14645 6.85355C9.34171 7.04882 9.65829 7.04882 9.85355 6.85355L11 5.70711L12.1464 6.85355C12.3417 7.04882 12.6583 7.04882 12.8536 6.85355C13.0488 6.65829 13.0488 6.34171 12.8536 6.14645L11.7071 5L12.8536 3.85355ZM2 10V13H10V10H2Z" fill="currentColor"/>
</svg>

<svg xmlns="http://www.w3.org/2000/svg" width="16" height="16" fill="none" viewBox="0 0 16 16">
  <path fill="currentColor" fill-rule="evenodd" d="M11 8a3 3 0 1 0 0-6 3 3 0 0 0 0 6Zm0 1v4a1 1 0 0 1-1 1H2a1 1 0 0 1-1-1V6a1 1 0 0 1 1-1h5a4 4 0 1 1 4 4Zm-1-.126V9H2V6h5.126A4.007 4.007 0 0 0 10 8.874Zm2.854-5.02a.5.5 0 0 0-.708-.708L11 4.293 9.854 3.146a.5.5 0 1 0-.708.708L10.293 5 9.146 6.146a.5.5 0 1 0 .708.708L11 5.707l1.146 1.147a.5.5 0 0 0 .708-.708L11.707 5l1.147-1.146ZM2 10v3h8v-3H2Z" clip-rule="evenodd"/>
</svg>
